X:6
T:Galician Jig
R:muineira
O:Galicia
Z:id:hn-muineira-6
M:6/8
L:1/8
K:A
efe cBA | ~A3 cBA | efe cBA | ~A3 B3 |
efe cBA | ~A3 cBA | ABA Bcd | efe A3 :|
|: ABc def | efe cBA | ABc def | efe c3 |
ABc def | efe cBA | efe cBA | BcB A3 :|
|: ~a3 ece | ~a3 fdf | ~a3 efe | dBe ecA |
~a3 ece | ~a3 fdf | ~a3 efe | dcB A3 :|
|: ABc ABc | ABc d2B | Bcd d2B | Bcd ~e3 |
ABc ABc | ABc d2B | Bcd ~e3 | dcB A3 :|

